assets/logo.svg

<svg xmlns="http://www.w3.org/2000/svg" viewBox="0 -0.5 36 36" shape-rendering="crispEdges"><path stroke="#000" d="M15 0h6m-9 1h12M10 2h5m6 0h5M8 3h4m12 0h4M7 4h3m16 0h3M6 5h2m20 0h2M5 6h2m22 0h2M4 7h2m24 0h2M3 8h2m13 0h3m10 0h2M3 9h2m12 0h5m9 0h2M2 10h2m12 0h6m10 0h2M2 11h2m12 0h7m9 0h2M1 12h2m13 0h7m10 0h2M1 13h2m13 0h7m10 0h2M1 14h2m13 0h7m10 0h2M0 15h2m13 0h8m11 0h2M0 16h2m8 0h12m12 0h2M0 17h2m7 0h13m12 0h2M0 18h2m6 0h13m13 0h2M0 19h2m6 0h14m12 0h2M0 20h2m6 0h15m11 0h2M1 21h2m6 0h16m8 0h2M1 22h2m7 0h7m2 0h8m6 0h2M1 23h2m17 0h9m4 0h2M2 24h2m18 0h12M2 25h2m20 0h10M3 26h2m21 0h7M3 27h2m23 0h5M4 28h2m24 0h2M5 29h2m22 0h2M6 30h2m20 0h2M7 31h3m16 0h3M8 32h4m12 0h4m-18 1h5m6 0h5m-14 1h12m-9 1h6"/><path stroke="#fdc2b8" d="M15 2h3m-5 1h4m-5 1h3m-2 1h1m-1 1h1m-1 1h1M4 12h1m-2 1h2m3 0h1m-6 1h4m-5 1h2m-2 1h1m-1 1h1m-1 1h1"/><path stroke="#fda798" d="M18 2h3m-4 1h6m-8 1h7m-8 1h8m-8 1h7m-7 1h7m-8 1h5m3 0h1M12 9h5m-6 1h5m-6 1h6m-6 1h6m-7 1h7m-9 1h9M4 15h11M3 16h7m-7 1h6m-6 1h5m-6 1h6m-6 1h2"/><path stroke="#feeae6" d="M12 3h1m-3 1h2M8 5h5M7 6h6M6 7h7M5 8h7M5 9h7m-8 1h7m-7 1h5m-6 1h1m1 0h3m-3 1h1m1 0h1"/><path stroke="#d67564" d="M23 3h1m0 1h1m-1 1h1m-1 1h2m-2 1h3m-3 1h3m-3 1h3m-3 1h4m-4 1h4m-4 1h4m-4 1h4m-4 1h4m-4 1h4m-4 1h3m-4 1h4m-4 1h4m-4 1h3m-1 1h1M3 23h2m5 0h4m5 0h1M4 24h16M7 25h13m-9 1h6"/><path stroke="#fc8a75" d="M22 4h2m-2 1h2m-3 1h3m-3 1h3m-2 1h2m-1 1h1m-1 1h1M4 20h3m-4 1h5m-5 1h6m-4 1h5"/><path stroke="#ac5e50" d="M25 4h1m-1 1h1m0 1h1m0 2h1m-1 1h1m-6 1h1m0 1h1m-1 1h1m-1 1h1m6 0h2m-2 1h2m-3 1h3m-4 1h5m-6 1h6m-6 1h6m-7 1h7m-7 1h6M8 21h1m18 0h5M9 22h1m19 0h2M6 25h1m13 0h2M8 26h3m6 0h7m-7 1h9m-11 1h13m-17 1h17m-15 1h13m-10 1h8"/><path stroke="#80463c" d="M26 5h2m-1 1h2m-2 1h3m-2 1h3m-3 1h3m-3 1h4m-4 1h4m-4 1h5m-5 1h2m2 0h1m-5 1h2m2 0h1m-5 1h1m3 0h2m-7 1h1m5 0h1m-1 1h1m-1 1h1m-1 1h1m-2 1h2m-9 1h2m5 0h1m-6 1h2m2 0h2m-4 1h4M4 25h2m16 0h2M5 26h3m16 0h2M5 27h12m9 0h2M6 28h9m13 0h2M7 29h4m17 0h1M8 30h5m13 0h2m-18 1h6m8 0h2m-14 1h12m-9 1h6"/><path stroke="#fee0db" d="M12 8h1m-4 4h1"/><path stroke="#ca6e5e" d="M22 9h1"/><path stroke="#fee3de" d="M9 11h1m-2 1h1m-3 1h1"/><path stroke="#e0988b" d="M23 14h1m-1 1h1m-1 1h1m-2 2h1m-1 1h1M7 20h1m6 3h1m2 0h2"/><path stroke="#eab8af" d="M22 16h1m-1 1h1m-2 1h1m-5 4h2m-4 1h2"/><path stroke="#b98278" d="M23 20h1m-4 4h1"/><path stroke="#a1584b" d="M24 20h1m-4 4h1"/></svg>

<svg xmlns="http://www.w3.org/2000/svg" viewBox="0 -0.5 36 36" shape-rendering="crispEdges">
<metadata>Made with Pixels to Svg https://codepen.io/shshaw/pen/XbxvNj</metadata>
<path stroke="#000000" d="M15 0h6M12 1h12M10 2h5M21 2h5M8 3h4M24 3h4M7 4h3M26 4h3M6 5h2M28 5h2M5 6h2M29 6h2M4 7h2M30 7h2M3 8h2M18 8h3M31 8h2M3 9h2M17 9h5M31 9h2M2 10h2M16 10h6M32 10h2M2 11h2M16 11h7M32 11h2M1 12h2M16 12h7M33 12h2M1 13h2M16 13h7M33 13h2M1 14h2M16 14h7M33 14h2M0 15h2M15 15h8M34 15h2M0 16h2M10 16h12M34 16h2M0 17h2M9 17h13M34 17h2M0 18h2M8 18h13M34 18h2M0 19h2M8 19h14M34 19h2M0 20h2M8 20h15M34 20h2M1 21h2M9 21h16M33 21h2M1 22h2M10 22h7M19 22h8M33 22h2M1 23h2M20 23h9M33 23h2M2 24h2M22 24h12M2 25h2M24 25h10M3 26h2M26 26h7M3 27h2M28 27h5M4 28h2M30 28h2M5 29h2M29 29h2M6 30h2M28 30h2M7 31h3M26 31h3M8 32h4M24 32h4M10 33h5M21 33h5M12 34h12M15 35h6" />
<path stroke="#fdc2b8" d="M15 2h3M13 3h4M12 4h3M13 5h1M13 6h1M13 7h1M4 12h1M3 13h2M8 13h1M3 14h4M2 15h2M2 16h1M2 17h1M2 18h1" />
<path stroke="#fda798" d="M18 2h3M17 3h6M15 4h7M14 5h8M14 6h7M14 7h7M13 8h5M21 8h1M12 9h5M11 10h5M10 11h6M10 12h6M9 13h7M7 14h9M4 15h11M3 16h7M3 17h6M3 18h5M2 19h6M2 20h2" />
<path stroke="#feeae6" d="M12 3h1M10 4h2M8 5h5M7 6h6M6 7h7M5 8h7M5 9h7M4 10h7M4 11h5M3 12h1M5 12h3M5 13h1M7 13h1" />
<path stroke="#d67564" d="M23 3h1M24 4h1M24 5h1M24 6h2M24 7h3M24 8h3M24 9h3M24 10h4M24 11h4M24 12h4M24 13h4M24 14h4M24 15h4M24 16h3M23 17h4M23 18h4M23 19h3M25 20h1M3 23h2M10 23h4M19 23h1M4 24h16M7 25h13M11 26h6" />
<path stroke="#fc8a75" d="M22 4h2M22 5h2M21 6h3M21 7h3M22 8h2M23 9h1M23 10h1M4 20h3M3 21h5M3 22h6M5 23h5" />
<path stroke="#ac5e50" d="M25 4h1M25 5h1M26 6h1M27 8h1M27 9h1M22 10h1M23 11h1M23 12h1M23 13h1M30 13h2M30 14h2M29 15h3M28 16h5M27 17h6M27 18h6M26 19h7M26 20h6M8 21h1M27 21h5M9 22h1M29 22h2M6 25h1M20 25h2M8 26h3M17 26h7M17 27h9M15 28h13M11 29h17M13 30h13M16 31h8" />
<path stroke="#80463c" d="M26 5h2M27 6h2M27 7h3M28 8h3M28 9h3M28 10h4M28 11h4M28 12h5M28 13h2M32 13h1M28 14h2M32 14h1M28 15h1M32 15h2M27 16h1M33 16h1M33 17h1M33 18h1M33 19h1M32 20h2M25 21h2M32 21h1M27 22h2M31 22h2M29 23h4M4 25h2M22 25h2M5 26h3M24 26h2M5 27h12M26 27h2M6 28h9M28 28h2M7 29h4M28 29h1M8 30h5M26 30h2M10 31h6M24 31h2M12 32h12M15 33h6" />
<path stroke="#fee0db" d="M12 8h1M9 12h1" />
<path stroke="#ca6e5e" d="M22 9h1" />
<path stroke="#fee3de" d="M9 11h1M8 12h1M6 13h1" />
<path stroke="#e0988b" d="M23 14h1M23 15h1M23 16h1M22 18h1M22 19h1M7 20h1M14 23h1M17 23h2" />
<path stroke="#eab8af" d="M22 16h1M22 17h1M21 18h1M17 22h2M15 23h2" />
<path stroke="#b98278" d="M23 20h1M20 24h1" />
<path stroke="#a1584b" d="M24 20h1M21 24h1" />
</svg>
